X:1
T:Why Delay?
T:Geroge Frederick Root, (1820-1895)
T:Why Delay?
T:Public Domain
T:Public Domain
C:Geroge Frederick Root, (1820-1895)
Z:Public Domain
%%score ( 1 2 ) ( 3 4 )
L:1/8
M:6/8
K:Ab
V:1 treble 
V:2 treble 
V:3 bass 
V:4 bass 
V:1
 [Cc]2 [CB] [CA]2 [CG] | [DB]2 [DA] [DG]2 [DF] | E2 [Ec] [=DB]2 [DA] | [EB]3- [EB]2 z | %4
w: 1.~Why de- lay to|make your peace with|Heav’n’s e- ter- nal|Why *|
w: 2.~Why de- lay to|leave the husks on|which your soul has|Why *|
w: 3.~Why de- lay to|turn your feet to-|ward your Fa- ther’s|Why *|
w: 4.~Hear ye not His|plead- ing, hear ye|not His Spir- it’s|Bro- *|
 [Ec]2 [DB] [CA]2 [CG] | [DB]2 [DA] [DG]2 [DF] | [CE]2 [Ec] [Ec]2 [DB] | [CA]3- [CA]2 z || %8
w: de- lay the par-|don that the prayer|of faith will bring?||
w: re- fuse the gra-|cious hand that holds|the heav’n- ly bread?|Why *|
w: de- lay to en-|ter there and sor-|row nev- er- more?||
w: ther,s why not give|your- self to Him|this ve- ry hour?||
"^Refrain" [Ge]2 [Gd] [GB]2 z | [Bd]2 [Ac] [EA]2 [EG] | [DF] [DB]2 [=DB]2 [Dc] | %11
w: |||
w: de- lay, why|de- lay? no bet-|ter time will come;|
w: |||
w: |||
 [EB]3- [EB]2 [EB] | [Ec]2 [DB] [CA]2 [CG] | [DB]2 [DA] [DF]2 [Fd] | [Ec]2 [CA] [DB] z [CA] | %15
w: ||||
w: Ac- * cept|His call and find|in Him A rest-|ing place, a home.|
w: ||||
w: ||||
 [CA]3- [CA]2 |] %16
w: |
w: |
w: |
w: |
V:2
 x6 | x6 | E2 x4 | x6 | x6 | x6 | x6 | x6 || x6 | x6 | x6 | x6 | x6 | x6 | x6 | x5 |] %16
w: ||King?||||||||||||||
w: ||fed?||||||||||||||
w: ||door?||||||||||||||
w: ||power?||||||||||||||
V:3
 [A,,A,]2 [A,,A,] [A,,A,]2 [A,,A,] | [D,F,]2 [D,F,] [D,G,]2 [D,A,] | %2
 [C,A,]2 [C,A,] [F,A,]2 [F,A,] | [E,G,]3- [E,G,]2 z | [A,,A,]2 [A,,A,] [A,,A,]2 [A,,A,] | %5
 [D,F,]2 [D,F,] [D,G,]2 [D,A,] | [E,A,]2 [E,A,] [E,G,]2 [E,G,] | A,3- A,2 z || %8
 [E,B,]2 [E,E] [E,E]2 z | [A,,E]2 [A,,E] [A,,C]2 [A,,A,] | [D,A,] [D,F,]2 [B,,F,]2 [B,,A,] | %11
 [E,G,]3- [E,G,]2 [E,G,] | [A,,A,]2 [A,,A,] [A,,A,]2 [A,,A,] | [D,F,]2 [D,F,] [D,A,]2 [D,A,] | %14
 [E,A,]2 [E,A,] [E,G,] z [A,,A,] | [A,,A,]3- [A,,A,]2 |] %16
V:4
 x6 | x6 | x6 | x6 | x6 | x6 | x6 | A,3- A,2 x || x6 | x6 | x6 | x6 | x6 | x6 | x6 | x5 |] %16

